X:1
T: Mickie Murphy
C:
R:Jig
Q:180
K:D
M:6/8
L:1/16
|:d4f2 e2c2A2|B2d2B2 A2F2D2|d4f2 e2c2A2|B4c2d6|
d4f2 e2c2A2|B2d2B2 A2F2D2|G2A2B2 A2d2c2|d6d4z2|
d2f2a2 a2f2d2|c2e2d2 c2B2A2|d2f2a2 a2f2d2|f6a6|
d2f2a2 a2f2d2|c2e2d2 c2B2A2|G2A2B2 A2c2d2|d6-d6:|
